packages/Snapp/src/MultiRideIcon/index.svg

<?xml version="1.0" encoding="UTF-8"?>
<svg width="24px" height="24px" viewBox="0 0 24 24" version="1.1" xmlns="http://www.w3.org/2000/svg" xmlns:xlink="http://www.w3.org/1999/xlink">
    <title>Icons/24/MultiRide</title>
    <g id="Icons/24/MultiRide" stroke="none" stroke-width="1" fill="none" fill-rule="evenodd">
        <rect id="Container" fill-opacity="0" fill="#D8D8D8" fill-rule="nonzero" x="0" y="0" width="24" height="24"></rect>
        <path d="M13.1281658,6 C13.6346892,6 14.0644666,6.315 14.2179586,6.7575 L14.2179586,6.7575 L15.7298542,11.01 C15.7835764,11.1675 15.8142748,11.34 15.8142748,11.505 L15.8142748,11.505 L15.8142748,16.875 C15.8142748,17.4975 15.2924021,18 14.6630852,18 C14.0260936,18 13.5118956,17.49 13.5118956,16.875 L13.5118956,16.875 L13.5118956,16.5 L4.30237913,16.5 L4.30237913,16.875 C4.30237913,17.4975 3.78818112,18 3.15118956,18 C2.514198,18 2,17.4975 2,16.875 L2,16.875 L2,11.505 C2,11.3325 2.03069839,11.1675 2.08442057,11.01 L2.08442057,11.01 L3.59631619,6.7575 C3.75748273,6.315 4.17958557,6 4.68610898,6 L4.68610898,6 Z M19.313891,6 C19.7906189,6 20.1993643,6.27903114 20.3737696,6.68077346 L20.4036838,6.7575 L21.9155794,11.01 C21.9585572,11.136 21.9867997,11.2716 21.9963776,11.40528 L22,11.505 L22,16.875 C22,17.4975 21.4781274,18 20.8488104,18 C20.2383602,18 19.7406839,17.5316146 19.7002707,16.9512988 L19.6976209,16.875 L19.6976209,16.5 L16.765802,16.4996571 L16.7659248,11.505 C16.7659248,11.34 16.7352264,11.1675 16.6815042,11.01 L16.4998158,10.4997857 L20.4650806,10.5 L19.4904068,7.635 C19.390637,7.35642857 19.1320501,7.15545918 18.8313955,7.12817055 L18.76132,7.125 L15.3002609,7.12482857 L15.1696086,6.7575 C15.0161167,6.315 14.5863392,6 14.0798158,6 L19.313891,6 Z M4.68610898,12 C4.04911742,12 3.53491942,12.5025 3.53491942,13.125 C3.53491942,13.7475 4.04911742,14.25 4.68610898,14.25 C5.32310054,14.25 5.83729854,13.7475 5.83729854,13.125 C5.83729854,12.5025 5.32310054,12 4.68610898,12 Z M13.1281658,12 C12.4911742,12 11.9769762,12.5025 11.9769762,13.125 C11.9769762,13.7475 12.4911742,14.25 13.1281658,14.25 C13.7651573,14.25 14.2793553,13.7475 14.2793553,13.125 C14.2793553,12.5025 13.7651573,12 13.1281658,12 Z M19.313891,12 C18.6768995,12 18.1627015,12.5025 18.1627015,13.125 C18.1627015,13.7475 18.6768995,14.25 19.313891,14.25 C19.9508826,14.25 20.4650806,13.7475 20.4650806,13.125 C20.4650806,12.5025 19.9508826,12 19.313891,12 Z M12.5755948,7.125 L5.23867997,7.125 C4.90867229,7.125 4.61703761,7.335 4.50959325,7.635 L4.50959325,7.635 L3.53491942,10.5 L14.2793553,10.5 L13.3046815,7.635 C13.1972371,7.335 12.9056025,7.125 12.5755948,7.125 L12.5755948,7.125 Z" id="Combined-Shape" fill="#404040"></path>
    </g>
</svg>

<svg viewBox="0 0 24 24" xmlns="http://www.w3.org/2000/svg" fill="currentColor" focusable="false">
  <path d="M13.128 6c.507 0 .936.315 1.09.758l1.512 4.252c.054.158.084.33.084.495v5.37c0 .622-.522 1.125-1.15 1.125-.638 0-1.152-.51-1.152-1.125V16.5h-9.21v.375c0 .622-.514 1.125-1.15 1.125A1.137 1.137 0 012 16.875v-5.37c0-.173.03-.338.084-.495l1.512-4.252A1.152 1.152 0 014.686 6zm6.186 0c.477 0 .885.279 1.06.68l.03.078 1.512 4.252c.043.126.07.262.08.395l.004.1v5.37c0 .622-.522 1.125-1.151 1.125-.61 0-1.108-.468-1.149-1.049l-.002-.076V16.5h-2.932v-4.995c0-.165-.03-.338-.084-.495l-.182-.51h3.965l-.975-2.865a.777.777 0 00-.659-.507l-.07-.003h-3.46l-.131-.367A1.145 1.145 0 0014.08 6h5.234zM4.686 12c-.637 0-1.151.502-1.151 1.125s.514 1.125 1.151 1.125 1.151-.502 1.151-1.125S5.323 12 4.687 12zm8.442 0c-.637 0-1.151.502-1.151 1.125s.514 1.125 1.151 1.125 1.151-.502 1.151-1.125S13.765 12 13.13 12zm6.186 0c-.637 0-1.151.502-1.151 1.125s.514 1.125 1.15 1.125c.638 0 1.152-.502 1.152-1.125S19.951 12 19.314 12zm-6.738-4.875H5.239c-.33 0-.622.21-.73.51L3.536 10.5H14.28l-.974-2.865a.777.777 0 00-.73-.51z" fill="none"/>
</svg>
